X:14
T:Britches Full of Stitches
T:Breeches Full of Stitches
R:polka
Z:id:hn-polka-14
M:2/4
L:1/8
K:A
A>B cA|BA cA|A>B cA|BA FE|A>B cA|BA ce|A>B AF|FE E2:|
|:e>f ec|BA Bc|e>f ec|BA F2|e>f ec|BA Bc|A>B AF|FE E2:|
<end>
<start>
